packages/core/src/svgs/ant.svg

<svg width="24" height="24" viewBox="0 0 24 24" fill="none" xmlns="http://www.w3.org/2000/svg">
<g clip-path="url(#clip0_31_5990)">
<path d="M0 0H24V24H0V0Z" fill="url(#paint0_linear_31_5990)"/>
<path fill-rule="evenodd" clip-rule="evenodd" d="M9.3421 6.66235C9.94508 6.39997 10.5951 6.26291 11.2527 6.25949L10.618 5.61149C10.618 5.61149 13.1722 5.17135 16.438 7.20364C16.438 7.20364 16.4847 7.30735 16.438 7.60349C16.438 7.60349 17.986 8.29178 18.1094 9.61949C18.2414 10.9481 17.4288 11.7079 16.771 11.8116C16.771 11.8116 17.1112 11.2678 16.585 10.9716C16.4688 10.9091 16.3371 10.8814 16.2057 10.8919C15.1998 10.8919 15.0837 12.0679 15.0837 12.0679C15.1222 13.9322 18.1094 13.9322 18.8581 13.9322C18.223 16.4012 15.3601 18.4284 12.5058 18.4284C9.84825 18.4284 5.57153 16.5264 5.57153 11.9316C5.57153 10.4685 6.73296 7.79507 9.3421 6.66235ZM15.4784 7.46764C15.3155 7.63564 15.1762 7.70764 15.1377 7.73164L15.1222 7.73935C14.2012 7.53149 13.8687 7.05149 13.8687 7.05149C14.649 7.02854 15.4205 7.22244 16.0972 7.61164C16.0972 7.61164 15.7878 7.50749 15.4784 7.46764Z" fill="white"/>
<path d="M12.2147 12.5674C14.8515 12.5674 16.989 10.8753 16.989 8.78787C16.989 6.70047 14.8515 5.0083 12.2147 5.0083C9.57795 5.0083 7.44043 6.70047 7.44043 8.78787C7.44043 10.8753 9.57795 12.5674 12.2147 12.5674Z" fill="url(#paint1_linear_31_5990)"/>
</g>
<defs>
<linearGradient id="paint0_linear_31_5990" x1="12" y1="0" x2="12" y2="24" gradientUnits="userSpaceOnUse">
<stop stop-color="#02E8F7"/>
<stop offset="1" stop-color="#03CCFD"/>
</linearGradient>
<linearGradient id="paint1_linear_31_5990" x1="12.2147" y1="5.0083" x2="12.2147" y2="12.5674" gradientUnits="userSpaceOnUse">
<stop stop-color="#2CD3E1" stop-opacity="0"/>
<stop offset="1" stop-color="#01BBED"/>
</linearGradient>
<clipPath id="clip0_31_5990">
<rect width="24" height="24" fill="white"/>
</clipPath>
</defs>
</svg>

<svg xmlns="http://www.w3.org/2000/svg" width="24" height="24" fill="none" viewBox="0 0 24 24"><g clip-path="url(#a)"><path fill="url(#b)" d="M0 0h24v24H0z"/><path fill="#fff" fill-rule="evenodd" d="M9.342 6.662a4.9 4.9 0 0 1 1.91-.403l-.634-.648s2.554-.44 5.82 1.593c0 0 .047.103 0 .4 0 0 1.548.688 1.671 2.015.132 1.33-.68 2.089-1.338 2.193 0 0 .34-.544-.186-.84a.7.7 0 0 0-.38-.08c-1.005 0-1.121 1.176-1.121 1.176.038 1.864 3.025 1.864 3.774 1.864-.635 2.47-3.498 4.496-6.352 4.496-2.658 0-6.934-1.902-6.934-6.496 0-1.463 1.161-4.137 3.77-5.27m6.136.806c-.162.168-.302.24-.34.264l-.016.007c-.92-.208-1.253-.688-1.253-.688.78-.022 1.552.171 2.228.56 0 0-.31-.104-.619-.143" clip-rule="evenodd"/><path fill="url(#c)" d="M12.215 12.567c2.637 0 4.774-1.692 4.774-3.78s-2.138-3.779-4.774-3.779S7.44 6.7 7.44 8.788s2.138 3.78 4.775 3.78"/></g><defs><linearGradient id="b" x1="12" x2="12" y1="0" y2="24" gradientUnits="userSpaceOnUse"><stop stop-color="#02E8F7"/><stop offset="1" stop-color="#03CCFD"/></linearGradient><linearGradient id="c" x1="12.215" x2="12.215" y1="5.008" y2="12.567" gradientUnits="userSpaceOnUse"><stop stop-color="#2CD3E1" stop-opacity="0"/><stop offset="1" stop-color="#01BBED"/></linearGradient><clipPath id="a"><path fill="#fff" d="M0 0h24v24H0z"/></clipPath></defs></svg>
